assets/img/braze_icons/arrow-block-up.svg

<svg fill="none" height="24" viewBox="0 0 24 24" width="24" xmlns="http://www.w3.org/2000/svg"><path clip-rule="evenodd" d="m11.2929 2.29289c.3905-.39052 1.0237-.39052 1.4142 0l7 7c.286.286.3716.71611.2168 1.08981s-.5194.6173-.9239.6173h-3v9.2231c.0001.1191.0001.2614-.0101.3867-.0119.1452-.0423.3532-.1534.5712-.1438.2822-.3732.5117-.6555.6555-.2179.1111-.4259.1415-.5711.1534-.1254.0102-.2676.0102-.3867.0101-1.4821-.0007-2.9642-.0007-4.44632 0-.11911.0001-.26137.0001-.38668-.0101-.14522-.0119-.35321-.0423-.57116-.1534-.28224-.1438-.51171-.3733-.65552-.6555-.11105-.218-.14149-.426-.15336-.5712-.01024-.1253-.01018-.2675-.01014-.3867l.00001-9.2231h-3c-.40446 0-.7691-.2436-.92388-.6173s-.06923-.80381.21677-1.08981z" fill="#801ed7" fill-rule="evenodd"/></svg>

<svg width="24" height="24" viewBox="0 0 24 24" fill="none" xmlns="http://www.w3.org/2000/svg">
<path fill-rule="evenodd" clip-rule="evenodd" d="M11.2929 2.29289C11.6834 1.90237 12.3166 1.90237 12.7071 2.29289L19.7071 9.29289C19.9931 9.57889 20.0787 10.009 19.9239 10.3827C19.7691 10.7564 19.4045 11 19 11H16L16 20.2231C16.0001 20.3422 16.0001 20.4845 15.9899 20.6098C15.978 20.755 15.9476 20.963 15.8365 21.181C15.6927 21.4632 15.4633 21.6927 15.181 21.8365C14.9631 21.9476 14.7551 21.978 14.6099 21.9899C14.4845 22.0001 14.3423 22.0001 14.2232 22C12.7411 21.9993 11.259 21.9993 9.77688 22C9.65777 22.0001 9.51551 22.0001 9.3902 21.9899C9.24498 21.978 9.03699 21.9476 8.81904 21.8365C8.5368 21.6927 8.30733 21.4632 8.16352 21.181C8.05247 20.963 8.02203 20.755 8.01016 20.6098C7.99992 20.4845 7.99998 20.3423 8.00002 20.2231L8.00003 11H5.00003C4.59557 11 4.23093 10.7564 4.07615 10.3827C3.92137 10.009 4.00692 9.57889 4.29292 9.29289L11.2929 2.29289Z" fill="#801ED7"/>
</svg>
